X:33
T:Corbin's Wedding
R:reel
C: 1978, 2010 L.E. McCullough  
M:4/4
L:1/8
K:G
~G3B dged|B~A3 ~G3A|B~E3 EDEF|GABG ~A3F|
~G3B dged|B~A3 ~G3A|Bded egdB|AGED ~E3F:|
|:~G3A B~E3|Bded e~g3|a~g3 b~g3|edBA (3B^cd BA|
~G3A B~E3|Bded e~g3|a~g3 ed (3B^cd|BAGD ~E3F:|
<end>
<start>
